X:1
T:I Will Guide Thee
M:3/4
L:1/4
K:Eb
 B,2 C| E3| E3| C- E C| B,3/2- C/2- E| E3| E2 F3/4- E/4| G2- F|(3G3.99999962500005/11.9999985000002G3.99999962500005/11.9999985000002F3.99999962500005/11.9999985000002G3.99999962500005/11.9999985000002F3.99999962500005/11.9999985000002E3.99999962500005/11.9999985000002 E2|\
 E- F G| F2(3G3.99999962500005/11.9999985000002G3.99999962500005/11.9999985000002F3.99999962500005/11.9999985000002G3.99999962500005/11.9999985000002F3.99999962500005/11.9999985000002E3.99999962500005/11.9999985000002|\
 E2 F3/4- E/4| G2- F|(3G3.99999962500005/11.9999985000002G3.99999962500005/11.9999985000002F3.99999962500005/11.9999985000002G3.99999962500005/11.9999985000002F3.99999962500005/11.9999985000002E3.99999962500005/11.9999985000002 E2|\
 C- E C| B,3/2- C/2- E| E3| E2 F3/4- E/4| G2- F|(3G3.99999962500005/11.9999985000002G3.99999962500005/11.9999985000002F3.99999962500005/11.9999985000002G3.99999962500005/11.9999985000002F3.99999962500005/11.9999985000002E3.99999962500005/11.9999985000002 E2|\
 F3/2- G/2 F| E3|
